frontend/src/assets/fonts/Denali-Icons/svg/setting-solid.svg

<svg xmlns="http://www.w3.org/2000/svg" viewBox="0 0 48 48"><defs><style>.cls-1{fill:none;}</style></defs><title>setting-solid</title><g id="Layer_2" data-name="Layer 2"><g id="invisible_box" data-name="invisible box"><rect class="cls-1" width="48" height="48"/><rect class="cls-1" width="48" height="48"/><rect class="cls-1" width="48" height="48"/></g><g id="Layer_3" data-name="Layer 3"><path d="M40.19,29.16l5.5-1.5a21.76,21.76,0,0,0,0-7.32l-5.5-1.5A1.93,1.93,0,0,1,39.1,16.2l2.83-4.95a22.34,22.34,0,0,0-5.18-5.18L31.8,8.9a1.9,1.9,0,0,1-.83.19,1.93,1.93,0,0,1-1.81-1.28l-1.5-5.5a21.76,21.76,0,0,0-7.32,0l-1.5,5.5A1.93,1.93,0,0,1,17,9.09a1.9,1.9,0,0,1-.83-.19L11.25,6.07a22.34,22.34,0,0,0-5.18,5.18L8.9,16.2a1.93,1.93,0,0,1-1.09,2.64l-5.5,1.5a21.76,21.76,0,0,0,0,7.32l5.5,1.5A1.93,1.93,0,0,1,8.9,31.8L6.07,36.75a22.34,22.34,0,0,0,5.18,5.18L16.2,39.1a1.9,1.9,0,0,1,.83-.19,1.93,1.93,0,0,1,1.81,1.28l1.5,5.5a21.76,21.76,0,0,0,7.32,0l1.5-5.5A1.93,1.93,0,0,1,31,38.91a1.9,1.9,0,0,1,.83.19l4.95,2.83a22.34,22.34,0,0,0,5.18-5.18L39.1,31.8A1.93,1.93,0,0,1,40.19,29.16ZM24,33a9,9,0,1,1,9-9A9,9,0,0,1,24,33Z"/></g></g></svg>

<svg xmlns="http://www.w3.org/2000/svg" width="48" height="48" viewBox="0 0 48 48">
  <title>setting-solid</title>
  <g id="Layer_2" data-name="Layer 2">
    <g id="invisible_box" data-name="invisible box">
      <rect width="48" height="48" fill="none"/>
      <rect width="48" height="48" fill="none"/>
      <rect width="48" height="48" fill="none"/>
    </g>
    <g id="icons_Q2" data-name="icons Q2">
      <path d="M40.2,29.2l5.5-1.5a23,23,0,0,0,0-7.4l-5.5-1.5a1.8,1.8,0,0,1-1.1-2.6l2.8-5a20.6,20.6,0,0,0-5.1-5.1l-5,2.8-.8.2a1.8,1.8,0,0,1-1.8-1.3L27.7,2.3a23,23,0,0,0-7.4,0L18.8,7.8A1.8,1.8,0,0,1,17,9.1l-.8-.2-5-2.8a20.6,20.6,0,0,0-5.1,5.1l2.8,5a1.8,1.8,0,0,1-1.1,2.6L2.3,20.3a23,23,0,0,0,0,7.4l5.5,1.5a1.8,1.8,0,0,1,1.1,2.6l-2.8,5a20.6,20.6,0,0,0,5.1,5.1l5-2.8.8-.2a1.8,1.8,0,0,1,1.8,1.3l1.5,5.5a23,23,0,0,0,7.4,0l1.5-5.5A1.8,1.8,0,0,1,31,38.9l.8.2,5,2.8a20.6,20.6,0,0,0,5.1-5.1l-2.8-5A1.8,1.8,0,0,1,40.2,29.2ZM24,33a9,9,0,1,1,9-9A9,9,0,0,1,24,33Z"/>
    </g>
  </g>
</svg>
